X: 1
T:The Maids of Mitchelstown
C:Trad
R:Reel
M:4/4
K:DDor
Z:From The Bothy Band.
L:1/8
D2 AG EGGG | A2 GA cAGE | D2 AG EGGG |1 A2 GE EDCE :|2 A2 GE ED D2 |
|: EGAB c2 BG | Adde f2 ed | cAGE F3 G |1 AcGE EDD2 :|2 (3ABc (3Bcd cAGE
 | D4
